panel/22/audio-volume-high-panel.svg

<?xml version="1.0" encoding="UTF-8" standalone="no"?>
<!-- Created with Inkscape (http://www.inkscape.org/) -->

<svg
   xmlns:dc="http://purl.org/dc/elements/1.1/"
   xmlns:cc="http://creativecommons.org/ns#"
   xmlns:rdf="http://www.w3.org/1999/02/22-rdf-syntax-ns#"
   xmlns:svg="http://www.w3.org/2000/svg"
   xmlns="http://www.w3.org/2000/svg"
   xmlns:xlink="http://www.w3.org/1999/xlink"
   xmlns:inkscape="http://www.inkscape.org/namespaces/inkscape"
   version="1.0"
   width="22"
   height="22"
   id="svg4431">
  <metadata
     id="metadata16">
    <rdf:RDF>
      <cc:Work
         rdf:about="">
        <dc:format>image/svg+xml</dc:format>
        <dc:type
           rdf:resource="http://purl.org/dc/dcmitype/StillImage" />
      </cc:Work>
    </rdf:RDF>
  </metadata>
  <defs
     id="defs4433">
    <linearGradient
       x1="50.925655"
       y1="11.648451"
       x2="73.986542"
       y2="11.648451"
       id="linearGradient2390"
       xlink:href="#linearGradient3678"
       gradientUnits="userSpaceOnUse"
       gradientTransform="matrix(0,0.7805424,-0.7617909,0,28.873684,-37.749634)" />
    <linearGradient
       x1="9"
       y1="3"
       x2="9"
       y2="21"
       id="linearGradient2393"
       xlink:href="#linearGradient3678"
       gradientUnits="userSpaceOnUse"
       gradientTransform="translate(-2,-1)" />
    <linearGradient
       x1="15"
       y1="8"
       x2="15"
       y2="20"
       id="linearGradient3692"
       xlink:href="#linearGradient3678"
       gradientUnits="userSpaceOnUse" />
    <linearGradient
       x1="9.1701241"
       y1="3"
       x2="9.311203"
       y2="15"
       id="linearGradient3684"
       xlink:href="#linearGradient3678"
       gradientUnits="userSpaceOnUse" />
    <linearGradient
       id="linearGradient3678">
      <stop
         id="stop3680"
         style="stop-color:#ffffff;stop-opacity:1"
         offset="0" />
      <stop
         id="stop3682"
         style="stop-color:#e6e6e6;stop-opacity:1"
         offset="1" />
    </linearGradient>
    <linearGradient
       x1="9.1701241"
       y1="3"
       x2="9.311203"
       y2="15"
       id="linearGradient3640"
       xlink:href="#linearGradient3678"
       gradientUnits="userSpaceOnUse"
       gradientTransform="translate(-22.566265,-7.7349402)" />
    <linearGradient
       x1="15"
       y1="8"
       x2="15"
       y2="20"
       id="linearGradient3643"
       xlink:href="#linearGradient3678"
       gradientUnits="userSpaceOnUse"
       gradientTransform="translate(-22.566265,-7.7349402)" />
  </defs>
  <path
     d="m 16.854435,4.85 c 0,0 2.613537,2.422712 2.613537,7.634915 C 19.467972,17.671495 16.85,20.15 16.85,20.15 M 13.879639,7.095476 c 0,0 1.845351,1.744801 1.779696,5.404524 C 15.593135,16.190079 13.85,17.904524 13.85,17.904524 m -3,-8.682665 c 0,0 0.983474,0.794985 1.008541,3.230647 C 11.883301,14.857803 10.85,15.778141 10.85,15.778141"
     inkscape:connector-curvature="0"
     id="path3209-0"
     style="opacity:0.5;fill:none;stroke:#000000;stroke-width:1.70000005;stroke-linecap:butt;stroke-linejoin:miter;stroke-miterlimit:4;stroke-opacity:1;stroke-dasharray:none;stroke-dashoffset:0;marker:none;visibility:visible;display:inline;overflow:visible;enable-background:accumulate" />
  <path
     d="m 2,10 0,5 2,0 4,4 0,-13 -4,4 -2,0 z"
     inkscape:connector-curvature="0"
     id="path2387-4"
     style="opacity:0.5;fill:#000000;fill-opacity:1;fill-rule:evenodd;stroke:none" />
  <path
     d="m 2,9 0,5 2,0 4,4 L 8,5 4,9 2,9 z"
     inkscape:connector-curvature="0"
     id="path2387"
     style="fill:url(#linearGradient2393);fill-opacity:1;fill-rule:evenodd;stroke:none" />
  <path
     d="m 16.854435,3.85 c 0,0 2.613537,2.422712 2.613537,7.634915 C 19.467972,16.671495 16.85,19.15 16.85,19.15 M 13.879639,6.095476 c 0,0 1.845351,1.744801 1.779696,5.404524 C 15.593135,15.190079 13.85,16.904524 13.85,16.904524 m -3,-8.682665 c 0,0 0.983474,0.794985 1.008541,3.230647 C 11.883301,13.857803 10.85,14.778141 10.85,14.778141"
     inkscape:connector-curvature="0"
     id="path3209"
     style="fill:none;stroke:url(#linearGradient2390);stroke-width:1.70000005;stroke-linecap:butt;stroke-linejoin:miter;stroke-miterlimit:4;stroke-opacity:1;stroke-dasharray:none;stroke-dashoffset:0;marker:none;visibility:visible;display:inline;overflow:visible;enable-background:accumulate" />
</svg>

<?xml version="1.0" encoding="UTF-8" standalone="no"?>
<!-- Created with Inkscape (http://www.inkscape.org/) -->

<svg
   xmlns:dc="http://purl.org/dc/elements/1.1/"
   xmlns:cc="http://creativecommons.org/ns#"
   xmlns:rdf="http://www.w3.org/1999/02/22-rdf-syntax-ns#"
   xmlns:svg="http://www.w3.org/2000/svg"
   xmlns="http://www.w3.org/2000/svg"
   xmlns:xlink="http://www.w3.org/1999/xlink"
   xmlns:sodipodi="http://sodipodi.sourceforge.net/DTD/sodipodi-0.dtd"
   xmlns:inkscape="http://www.inkscape.org/namespaces/inkscape"
   version="1.0"
   width="22"
   height="22"
   id="svg4431"
   inkscape:version="0.47 r22583"
   sodipodi:docname="audio-volume-high-panel.svg"
   sodipodi:version="0.32"
   inkscape:output_extension="org.inkscape.output.svg.inkscape">
  <metadata
     id="metadata16">
    <rdf:RDF>
      <cc:Work
         rdf:about="">
        <dc:format>image/svg+xml</dc:format>
        <dc:type
           rdf:resource="http://purl.org/dc/dcmitype/StillImage" />
      </cc:Work>
    </rdf:RDF>
  </metadata>
  <sodipodi:namedview
     pagecolor="#ffffff"
     bordercolor="#666666"
     borderopacity="1"
     objecttolerance="10"
     gridtolerance="10"
     guidetolerance="10"
     inkscape:pageopacity="0"
     inkscape:pageshadow="2"
     inkscape:window-width="1280"
     inkscape:window-height="753"
     id="namedview14"
     showgrid="false"
     inkscape:zoom="10.375"
     inkscape:cx="-2.746988"
     inkscape:cy="12"
     inkscape:window-x="0"
     inkscape:window-y="24"
     inkscape:window-maximized="1"
     inkscape:current-layer="svg4431"
     showguides="true"
     inkscape:guide-bbox="true" />
  <defs
     id="defs4433">
    <linearGradient
       inkscape:collect="always"
       xlink:href="#linearGradient3678"
       id="linearGradient2390"
       gradientUnits="userSpaceOnUse"
       gradientTransform="matrix(0,0.7805424,-0.7617909,0,28.873684,-37.749634)"
       x1="50.925655"
       y1="11.648451"
       x2="73.986542"
       y2="11.648451" />
    <linearGradient
       inkscape:collect="always"
       xlink:href="#linearGradient3678"
       id="linearGradient2393"
       gradientUnits="userSpaceOnUse"
       gradientTransform="translate(-2,-1)"
       x1="9"
       y1="3"
       x2="9"
       y2="21" />
    <linearGradient
       gradientUnits="userSpaceOnUse"
       y2="20"
       x2="15"
       y1="8"
       x1="15"
       id="linearGradient3692"
       xlink:href="#linearGradient3678"
       inkscape:collect="always" />
    <linearGradient
       gradientUnits="userSpaceOnUse"
       y2="15"
       x2="9.311203"
       y1="3"
       x1="9.1701241"
       id="linearGradient3684"
       xlink:href="#linearGradient3678"
       inkscape:collect="always" />
    <linearGradient
       id="linearGradient3678">
      <stop
         id="stop3680"
         offset="0"
         style="stop-color:#ffffff;stop-opacity:1;" />
      <stop
         id="stop3682"
         offset="1"
         style="stop-color:#e6e6e6;stop-opacity:1;" />
    </linearGradient>
    <linearGradient
       inkscape:collect="always"
       xlink:href="#linearGradient3678"
       id="linearGradient3640"
       gradientUnits="userSpaceOnUse"
       x1="9.1701241"
       y1="3"
       x2="9.311203"
       y2="15"
       gradientTransform="translate(-22.566265,-7.7349402)" />
    <linearGradient
       inkscape:collect="always"
       xlink:href="#linearGradient3678"
       id="linearGradient3643"
       gradientUnits="userSpaceOnUse"
       x1="15"
       y1="8"
       x2="15"
       y2="20"
       gradientTransform="translate(-22.566265,-7.7349402)" />
  </defs>
  <path
     style="opacity:0.50000000000000000;fill:none;stroke:#000000;stroke-width:1.70000005000000010;stroke-linecap:butt;stroke-linejoin:miter;marker:none;stroke-miterlimit:4;stroke-dasharray:none;stroke-dashoffset:0;stroke-opacity:1;visibility:visible;display:inline;overflow:visible;enable-background:accumulate"
     id="path3209-0"
     d="M 16.854435,4.85 C 16.854435,4.85 19.467972,7.272712 19.467972,12.484915 C 19.467972,17.671495 16.85,20.15 16.85,20.15 M 13.879639,7.095476 C 13.879639,7.095476 15.72499,8.840277 15.659335,12.5 C 15.593135,16.190079 13.85,17.904524 13.85,17.904524 M 10.85,9.221859 C 10.85,9.221859 11.833474,10.016844 11.858541,12.452506 C 11.883301,14.857803 10.85,15.778141 10.85,15.778141" />
  <path
     style="opacity:0.5;fill:#000000;fill-opacity:1;fill-rule:evenodd;stroke:none"
     id="path2387-4"
     d="M 2,10 L 2,15 L 4,15 L 8,19 L 8,6 L 4,10 L 2,10 z" />
  <path
     style="opacity:1;fill:url(#linearGradient2393);fill-opacity:1;fill-rule:evenodd;stroke:none"
     id="path2387"
     d="M 2,9 L 2,14 L 4,14 L 8,18 L 8,5 L 4,9 L 2,9 z" />
  <path
     style="opacity:1;fill:none;stroke:url(#linearGradient2390);stroke-width:1.70000005000000010;stroke-linecap:butt;stroke-linejoin:miter;marker:none;stroke-miterlimit:4;stroke-dasharray:none;stroke-dashoffset:0;stroke-opacity:1;visibility:visible;display:inline;overflow:visible;enable-background:accumulate"
     id="path3209"
     d="M 16.854435,3.85 C 16.854435,3.85 19.467972,6.272712 19.467972,11.484915 C 19.467972,16.671495 16.85,19.15 16.85,19.15 M 13.879639,6.095476 C 13.879639,6.095476 15.72499,7.840277 15.659335,11.5 C 15.593135,15.190079 13.85,16.904524 13.85,16.904524 M 10.85,8.221859 C 10.85,8.221859 11.833474,9.016844 11.858541,11.452506 C 11.883301,13.857803 10.85,14.778141 10.85,14.778141" />
</svg>
